dist/svg/droplet.svg

<!-- Generated by Trend Micro Style Portal -->
<svg version="1.1" xmlns="http://www.w3.org/2000/svg" width="16" height="16" viewBox="0 0 16 16">
  <title>droplet</title>
  <path fill="rgb(34,34,34)" d="M13.788 7.244c-1.064-2.572-2.696-4.723-4.748-6.373l-0.031-0.024-1.009-0.847-1.009 0.847c-2.082 1.674-3.714 3.826-4.74 6.292l-0.039 0.105c-0.296 0.725-0.467 1.566-0.467 2.448 0 1.090 0.262 2.119 0.727 3.026l-0.017-0.037c0.149 0.278 0.298 0.514 0.463 0.738l-0.012-0.017c0.176 0.24 0.354 0.451 0.546 0.65l-0.002-0.002c0.88 0.904 2.022 1.549 3.304 1.809l0.041 0.007c0.36 0.080 0.775 0.129 1.2 0.134l0.004 0c2.383-0.012 4.454-1.336 5.529-3.286l0.017-0.033c0.447-0.87 0.709-1.898 0.709-2.988 0-0.882-0.172-1.723-0.483-2.493l0.016 0.045zM12.163 11.957c-0.817 1.49-2.373 2.485-4.162 2.491h-0.001v-12.415l0-0c1.878 1.5 3.352 3.429 4.282 5.643l0.035 0.094c0.238 0.569 0.376 1.23 0.376 1.923 0 0.825-0.196 1.605-0.544 2.295l0.013-0.029z"></path>
</svg>

<svg width="16" height="16" viewBox="0 0 16 16" fill="rgb(34, 34, 34)" xmlns="http://www.w3.org/2000/svg"><title>droplet</title><path d="M13.788 7.244C12.724 4.672 11.092 2.521 9.04 0.871L9.009 0.847L8 0L6.991 0.847C4.909 2.521 3.277 4.673 2.251 7.139L2.212 7.244C1.916 7.969 1.745 8.81 1.745 9.692C1.745 10.782 2.00699 11.811 2.47199 12.718L2.455 12.681C2.604 12.959 2.753 13.195 2.918 13.419L2.906 13.402C3.082 13.642 3.25999 13.853 3.452 14.052L3.45 14.05C4.33 14.954 5.472 15.599 6.754 15.859L6.795 15.866C7.155 15.946 7.56999 15.995 7.995 16H7.999C10.382 15.988 12.453 14.664 13.528 12.714L13.545 12.681C13.992 11.811 14.254 10.783 14.254 9.693C14.254 8.811 14.082 7.97 13.771 7.2L13.787 7.245L13.788 7.244ZM12.163 11.957C11.346 13.447 9.79 14.442 8.001 14.448H8V2.033C9.878 3.533 11.352 5.462 12.282 7.676L12.317 7.77C12.555 8.339 12.693 9 12.693 9.693C12.693 10.518 12.497 11.298 12.149 11.988L12.162 11.959L12.163 11.957Z" fill="rgb(34, 34, 34)" fill-opacity="1.00"/></svg>
